X:1
T:Abbey Dore, 12.10.12.4
T:Abbey Dore, 12.10.12.4
T:Samuel Sebastian Wesley, 1864
T:Public Domain Courtesy of the Cyber Hymnal™
C:Samuel Sebastian Wesley, 1864
Z:Public Domain
Z:Courtesy of the Cyber Hymnal™
%%score ( 1 2 ) ( 3 4 )
L:1/8
Q:1/4=110
M:3/4
K:F
V:1 treble 
V:2 treble 
V:3 bass 
V:4 bass 
V:1
 [CA]2 [CF]2 [CA]2 | [Cc]3 [Cc] [Cc]2 | [CA]2 [CF]2 [CA]2 | [Fd]3 [Fd] [Fd]2 | [Fd]2 [Af]2 [Ge]2 | %5
 [Af]6 | [Fc]2 [FA]2 [EG]2 | [EG]3 [DF] [DF]2 | [Bd]2 [GB]2 [FA]2 | [FA]3 [EG] [EG]2 | %10
 [Fc]2 [Ad]2 [Ge]2 | [Ff]3 [Fe] [Gd]2 | [Ac]2 [FA]2 [EG]2 | F8 |] %14
V:2
 x6 | x6 | x6 | x6 | x6 | x6 | x6 | x6 | x6 | x6 | x6 | x6 | x6 | F8 |] %14
V:3
 [F,A,]2 A,2 [F,A,]2 | [E,G,]3 [D,F,] [E,G,]2 | [F,A,]2 A,2 [F,A,]2 | [D,A,]3 [D,A,] [D,A,]2 | %4
 [B,,D]2 [C,C]2 [C,C]2 | [F,A,]6 | [A,C]2 [F,C]2 [C,B,]2 | [D,B,]3 [D,A,] [D,A,]2 | %8
 [G,,B,]2 [G,,C]2 [B,,D]2 | [C,C]3 [C,C] [C,C]2 | [A,C]2 [F,A,]2 [E,A,]2 | %11
 [D,A,]3 [C,A,] [=B,,D]2 | [C,F]2 [C,C]2 [C,B,]2 | [F,A,]8 |] %14
V:4
 x2 A,2 x2 | x6 | x2 A,2 x2 | x6 | x6 | x6 | x6 | x6 | x6 | x6 | x6 | x6 | x6 | x8 |] %14

